X:1
T:Title
%%score { ( 1 3 ) | 2 }
L:1/8
M:6/8
K:D
V:1 treble nm="Grand Piano"
V:3 treble 
V:2 bass 
V:1
 z3 z2[Q:1/4=93] [DF]/[EG]/ | [FA]2 [GB] [FA]2 [DF]/[EG]/ | [FA]2 [GB] [FA]2 D/E/ | F2 [FA] A2 F | %4
 [CE]3- [CE]2 [CE]/[DF]/ | [EG]2 [FA] [EG]2 [CE]/[DF]/ | [EG]2 [FA] [Gc]2 B/B/ | %7
 AAG F[K:bass] [G,CE]2 | [F,D]6 | z3 z [Fd]2 | [CG]6 | z3 z [CB]2 | [DF]6 | %13
 [FA][=F^G][^FA] [Fd]2 [Fd] |[M:7/8] B^AB e3 d |[M:3/4] cB AB c2 |[M:5/8] [Fd]-[Fd]- [Fd]3 |] %17
V:2
 z3 z2 [D,A,]/[D,A,]/ | [D,D]2 [D,D] [D,D]2 [D,A,]/[D,A,]/ | [D,D]2 [D,D] [D,D]2 [D,F,]/[D,G,D]/ | %3
 [D,A,D]2 [D,D] [F,D]2 [D,A,D] | [A,,A,]3- [A,,A,]2 [A,,A,]/[A,,A,]/ | %5
 [A,,A,]2 [A,,A,] [A,,A,]2 [A,,A,]/[A,,A,]/ | [A,,A,]2 [A,,A,] [A,,A,]2 [G,A,C]/[G,A,C]/ | %7
 [F,A,D][F,DF][G,B,E] [A,D] A,,2 | D,6 | D,[F,A,][F,A,] D,[F,A,]F, | E,G,G, A,,E,E, | %11
 E,[G,A,]G, A,,[E,G,A,]E, | D,F,F, A,,F,F, | [D,D][D,D][D,D] [D,A,]2 [D,D] | %14
[M:7/8][K:treble] [G,DG][G,CG][G,DG] [G,B,G]3 [G,EG] |[M:3/4] [A,EG][A,DG] [A,CG][A,DG] [A,EG]2 | %16
[M:5/8][K:bass] [D,D]-[D,D]- [D,D]3 |] %17
V:3
 x6 | x6 | x6 | x6 | x6 | x6 | x6 | x4[K:bass] x2 | x6 | [Fd][Fc][FB] .[FA]2 A, | %10
 z A,A, z [G,A,][G,A,] | [Gc][GB][A,GA] .[CG]2 [G,A,] | z A,A, z A,A, | x6 |[M:7/8] x7 | %15
[M:3/4] x6 |[M:5/8] x5 |] %17

